X:63
T:Celebrated Set Of Quadrilles No.3. Le4.063, A
B:L.Leadley MS#4 c1850
Z:Village Music Project, 2016 Steve Mansfield
M:6/8
L:1/8
Q:3/8=90
N:* eccc c'/b/ in Mss
N:** ecc c in Mss
K:C
c'/a/ | c'2g fed | ded b2a/b/ |"_sic"  d'2g fed |"*" ecc c2c'/b/ |
c'2g fed | ded c'2a/b/ | c'2g fed | "**" ecc c2 H||
G | cBc ABc | dec BAG | cBc def | edc c2e |
fef ABc | d>ec B2A/B/ | c2G FED | ECC C2 |]

